!!!!SEGMENT: pl-wumfc--n8919--001-001_szymanowski-karol--dwanascie-piesni-op-17-ix-kolysanka-cicho-pada.krn
!!!cenid: 19xx:81
!!!COM: Szymanowski, Karol
!!!COM-rismID: pe30106403
!!!CDT: 1882-1937
!!!CNT: Polish
!!!GTL: Dwanaście pieśni Op. 17
!!!OTL: IX. Kołysanka/Cicho pada
!!!OMV: 001
!!!PDT:
!!!AGN: Secular; Song
!!!YEC: Copyright 2022 Narodowy Instytut Fryderyka Chopina (https://polishscores.org)
!!!YEM: License CC-BY-4.0 (https://creativecommons.org/licenses/by/4.0)
!!!SMS-siglum: PL-Wumfc
!!!SMS-shelfmark: N8919
!!!SMS-variant:
!!!SMS-altvar:
!!!SMS-shelfwork: 001-001 G
!!!NIFC-rismSourceID: 1001170655
!!!NIFC-rismChildID: 1001170777
!!!NIFC-islandoraID: pl-wumfc:7736
!!!URL-pdf-islandora: https://repozytorium.nifc.pl/islandora/object/pl-wumfc%3A7736/datastream/PDF/view
!!!URL-scan: https://polish.musicsources.pl/pl/lokalizacje/galeria/druki-muzyczne/12686/3 @EN{Scan on Polish Music Sources Website} @PL{Skany w portalu Dziedzictwo Muzyki Polskiej w otwartym dostępie}
!!!IIIF:
!!!ONB-nifc: UWAGA; str. 3-4.
!!!OMD: Lento assai.
!!!AIN: 1 piano 1 vox
!!!key: none
**kern	**kern	**dynam	**kern	**text	**text	**dynam
*part2	*part2	*part2	*part1	*part1	*part1	*part1
*staff3	*staff2	*	*staff1	*staff1	*staff1	*
*ICklav	*ICklav	*	*ICvox	*	*	*
*Ipiano	*Ipiano	*	*Ivox	*	*	*
*I"Piano.	*I"Piano.	*	*I"Canto.	*	*	*
*clefF4	*clefG2	*	*clefG2	*	*	*
*k[]	*k[]	*	*k[]	*	*	*
*e-:	*e-:	*	*e-:	*	*	*
*M4/8	*M4/8	*	*M4/8	*	*	*
8r	(>16a#X'/LL 16aa#X	pp	8r	.	.	.
.	16a#'/JJ 16aa#	.	.	.	.	.
=1	=1	=1	=1	=1	=1	=1
*	*^	*	*	*	*	*
8r	16a#X'/LL 16aa#X	8r	.	2r	.	.	.
.	16a#'/J 16aa#	.	.	.	.	.	.
(8e^^\L 8g#X	16a#'/L 16aa#	(<8ee^^\L 8gg#X	>	.	.	.	.
.	16a#'/JJ 16aa#	.	.	.	.	.	.
8d\ 8f#X	16a#'/LL 16aa#	8dd\ 8ff#X	.	.	.	.	.
.	16a#'/J 16aa#	.	.	.	.	.	.
8cnZ\J) 8e	16a#'/L 16aa#	[8cc\J) [>8ee	]	.	.	.	.
.	16a#'/JJ) 16aa#	.	.	.	.	.	.
=2	=2	=2	=2	=2	=2	=2	=2
!LO:TX:t=P:problem=mixed beam	!	!	!	!	!	!	!
8FFF#X^^</L 8FF#X	(16a#X'/LL 16aa#X	8cc\L] 8ee]	.	8r	.	.	.
.	16a#'/J 16aa#	.	.	.	.	.	.
!	!	!	!	!LO:TX:t=P:problem=klamra łukowa i 3	!	!	!LO:DY:a
(8e^^\ 8g#X	16a#'/L 16aa#	(<8ee^^\ 8gg#X	<	24r	.	.	pp
!	!	!	!	!LO:TX:a:i:t=(sehr zart)	!	!	!LO:HP:a
.	.	.	.	24a#X/	Lei-	Ci-	<
.	16a#'/JJ 16aa#	.	.	.	.	.	.
.	.	.	.	24a#/	-se	-cho	.
8d\ 8f#X	16a#'/LL 16aa#	8dd\ 8ff#X	.	8.ddn\	fällt	pa-	[ >
.	16a#'/J 16aa#	.	.	.	.	.	.
[8c\J) [8e	16a#'/L 16aa#	[8cc\J [8ee	[	.	.	.	.
.	16a#'/JJ) 16aa#	.	.	16ccnZ\	ein	-da	]
=3	=3	=3	=3	=3	=3	=3	=3
!LO:TX:t=P:problem=mixed beam	!LO:TX:a:i:t=simile	!	!	!	!	!	!LO:HP:a
8c\L] 8e]	(16a#X'/LL 16aa#X	4cc\]) 4ee]	<	[8f#X/	Schnee	śnieg	<
.	16a#'/J 16aa#	.	.	.	.	.	.
!	!	!	!	!LO:TX:t=P:problem=klamra łukowa i 3	!	!	!
8AAA#X^^</ 8AA#X	16a#'/L 16aa#	.	.	24f#/]	.	.	.
.	.	.	.	24f#/	auf	na	.
.	16a#'/JJ 16aa#	.	[	.	.	.	.
.	.	.	.	24g#X/	das	piers	[
!	!	!	!	!	!	!	!LO:HP:a
(8B\ 8d#X	16a#'/LL 16aa#	8b\L 8dd#X	>	4a#X/	Land.	pól.	>
!	!LO:TX:b:i:t=rit.	!	!	!	!	!	!
.	16a#'/J 16aa#	.	.	.	.	.	.
8A#X\J) 8dn	16a#'/L 16aa#	8ddn\J	.	.	.	.	.
.	16a#'/JJ) 16aa#	.	]	.	.	.	]
!!LO:LB:g=original
=4	=4	=4	=4	=4	=4	=4	=4
8r	(16an^^/LL 16aan	8r	<	8r	.	.	.
.	16a'/J 16aa	.	.	.	.	.	.
!	!	!	!	!LO:TX:t=P:problem=klamra łukowa i 3	!	!	!
(8EEE\L 8EE	16a'/L 16aa	8cc#X\L	.	24r	.	.	.
.	.	.	.	24g#X/	Lei-	Wciąż	.
.	16a'/JJ 16aa	.	.	.	.	.	.
.	.	.	.	24g#/	-se	na	.
!	!	!	!	!	!	!	!LO:HP:a
8E\ 8G#X 8c#X	16g#X'/LL 16gg#X	8cc#\	.	8.cc#X\	fällt	ser-	<
.	16g#'/J 16gg#	.	[	.	.	.	.
!	!LO:TX:b:i:t=rit.	!	!	!	!	!	!
8AnZ\J) 8c#	16gn'/L 16ggn	8cc#\J	.	.	.	.	.
!	!	!	!	!	!	!	!LO:HP:t=poco cresc.
.	16g'/JJ) 16gg	.	.	16cc#\	ein	-ce	[ <
=5	=5	=5	=5	=5	=5	=5	=5
*^	*	*	*	*	*	*	*
8EEE-X/ 8EE-X	8ryy	(16gn'/LL 16ggn	(4cc#X\	pp >	[8cc#X\	Schnee	pa-	.
.	.	16g'/J 16gg	.	.	.	.	.	.
!	!	!	!	!	!LO:TX:t=P:problem=klamra łukowa i 3	!	!	!LO:HP:a
(8c#X/L	4.A^^>\ 4.a	16g'/L 16gg	.	.	(24cc#\]	.	.	>
.	.	.	.	.	24an/	auf	-da	.
.	.	16g'/JJ 16gg	.	.	.	.	.	.
.	.	.	.	.	24b\)	das	mi	.
8cn/	.	16g'/LL 16gg	8ccn\L	.	8.ccn\	Herz.	snieg.	]
.	.	16g'/J 16gg	.	.	.	.	.	.
!	!	!LO:TX:b:i:t=rit.	!	!	!	!	!	!
8Bn/J)	.	16g'/L 16gg	8b\J)	]	.	.	.	.
.	.	16g'/JJ) 16gg	.	.	16r	.	.	.
=6	=6	=6	=6	=6	=6	=6	=6	=6
8DDD#X/ 8DD#X	8ryy	(16g^^/LL 16gg	4b\	<	8r	.	.	.
.	.	16g'/J 16gg	.	.	.	.	.	.
!	!	!LO:TX:a:i:t=rallent.	!	!	!	!	!	!LO:HP:a
(<8A/L 8a	16A\LL	16f#X'/L 16ff#X	.	[	8b\	Bald	Już	<
.	[16EEE\JJ [>16EE	16f#'/JJ) 16ff#	.	.	.	.	.	.
!	!LO:N:cue	!	!	!	!	!	!	!LO:HP:a
!	!LO:TX:b:t=P:problem=nuty w nawiasie	!	!	!	!	!	!	!
8G#X/ 8g#X	8EEE\] 8EE]	(16f#^^/LL 16ff#	8a#X\L	>	8.e/	sind	nas	[ >
.	.	16f#'/J 16ff#	.	.	.	.	.	.
8Gn/J) 8gn	8ryy	16e'/L 16ee	8b\J	.	.	.	.	.
.	.	16e'/JJ) 16ee	.	]	16f#X/	wir	za-	]
*v	*v	*	*	*	*	*	*	*
!!LO:LB:g=original
=7	=7	=7	=7	=7	=7	=7	=7
!	!	!	!	!	!	!	!LO:HP:a
4CCC/ 4CC	(16e-X'/LL 16ee-X	4cc\	.	8.g/	zu-	-sy-	<
.	16e-'/J 16ee-	.	.	.	.	.	.
.	16e-'/L 16ee-	.	.	.	.	.	.
.	16e-'/JJ) 16ee-	.	.	16cc\	-ge-	-pie	[
*clefG2	*	*	*	*	*	*	*
!	!	!	!	!	!	!	!LO:HP:a
4e-X^^</ 4ee-X	(16cc'^^\LL 16ccc	4ryy	<	8cc\	-schneit.	wnet.	>
.	16cc'\J 16ccc	.	.	.	.	.	.
.	16b'\L 16bb	.	.	16r	.	.	]
!	!	!	!	!LO:TX:a:i:t=a tempo	!	!	!
.	16b'\JJ) 16bb	.	[	16ee-X\	Wie	O,	.
*clefF4	*	*	*	*	*	*	*
=8	=8	=8	=8	=8	=8	=8	=8
!LO:TX:t=P:problem=mixed beam	!	!	!	!	!	!	!LO:DY:a
!	!	!	!	!	!	!	!LO:HP:a
8FFF#X/L 8FF#X	(16a#X'/LL 16aa#X	8r	p	8.ddn\	schõn	jak-	p <
.	16a#'/J 16aa#	.	<	.	.	.	.
(>8e^^\ 8g#X	16a#'/L 16aa#	8ee\L 8gg#	.	.	.	.	.
.	16a#'/JJ 16aa#	.	.	16dd\	du	-żeś	[
!	!	!	!	!	!	!	!LO:HP:a
8d\ 8f#X	16a#'/LL 16aa#	8dd\ 8ff#X	.	16ff#X\	mü-	pię-	>
.	16a#'/J 16aa#	.	.	16ff#\	-de	-kna,	.
[8cn\J) [8e	16a#'/L 16aa#	[8ccn\J [>8ee	[	16.ee\	bist,	ty	.
.	16a#'/JJ) 16aa#	.	.	.	.	.	.
.	.	.	.	32f#X/	du	w znu-	]
=9	=9	=9	=9	=9	=9	=9	=9
!	!	!	!LO:DY:a:t=(pp):rj	!	!	!	!
8c\L] 8e]	(16a#X'/LL 16aa#X	4cc\] 4ee]	pp >	[8f#X/	jun-	-że-	.
.	16a#'/J 16aa#	.	.	.	.	.	.
!	!	!	!	!LO:TX:a:t=rall.	!	!	!
!	!	!	!	!LO:TX:t=P:problem=klamra łukowa i 3	!	!	!
8AAA#X\J 8AA#X	16a#'/L 16aa#	.	.	24f#/]	.	.	.
.	.	.	.	(24f#/LL	-ge	-niu	.
.	16a#'/JJ 16aa#	.	.	.	.	.	.
.	.	.	.	24g#X/JJ)	.	.	.
(8B^^>\L 8d#X	16a#'/LL 16aa#	(8b\L 8dd#X	.	4a#X/	Frau!	swem!	.
.	16a#'/J 16aa#	.	.	.	.	.	.
8A#X\J) 8dn	16a#'/L 16aa#	8ddn\J)	.	.	.	.	.
.	16a#'/JJ) 16aa#	.	]	.	.	.	.
!!LO:PB:g=original
=10||	=10||	=10||	=10||	=10||	=10||	=10||	=10||
*	*	*	*	*	*	*	*^
!LO:TX:t=P:problem=klamra łukowa i 3	!LO:TX:t=P:problem=klamra łukowa i 3	!	!	!LO:TX:a:t=Avvivando.	!	!	!	!
24EEE/ 24EE	24b-X\ 24cc#X 24ggn 24bb-X	4ryy	.	8r	.	.	.	.
(24BB-X/LL	(24B-X/LL	.	<	.	.	.	.	.
24BBn/JJ	24Bn/JJ	.	[	.	.	.	.	.
24Cn/LL	24c/LL	.	.	16r	.	.	.	.
24D-X/	24d-X/	.	.	.	.	.	.	.
!	!	!	!	!	!	!	!LO:DY:a	!
!	!	!	!	!	!	!	!LO:HP:a	!
.	.	.	.	16b-X\	Und	A	mp <	.
24F-X/JJ)	[24f-X/JJ)	.	.	.	.	.	.	.
*Xtuplet	*Xtuplet	*	*	*	*	*	*	*
24EEE-X^^</LL 24EE-X	(<24f-\LL]	(>8Gn^^>/L 8gn	.	8.dd-X\	rot	w bia-	.	.
(24E-X/	24e-X\	.	.	.	.	.	.	.
24Dn/J)	24dn\J	.	.	.	.	.	.	.
24GGG-X^^</L 24GG-X	24e-\L	8B-X^^>/J 8b-X	.	.	.	.	.	.
(24BBn/	24Bn\	.	.	.	.	.	.	.
!	!	!	!	!	!	!	!	!LO:HP:a
.	.	.	.	16ccn\	im	-łych	.	<
24Cn/JJ)	24cn\JJ)	.	.	.	.	.	.	.
*	*v	*v	*	*	*	*	*	*
=11	=11	=11	=11	=11	=11	=11	=11
*M6/8	*M6/8	*	*M6/8	*	*	*	*
*	*^	*	*	*	*	*	*
!	!	!	!	!	!	!	!LO:DY:a	!
!	!	!	!	!	!	!	!LO:HP:a	!
(24FFFn\LL 24FFn	(<24e-X\LL	[8c-X/ [>8cc-X	.	(8.ee-X\	wei-	mgłach	[ f	.
24Dn\	24dn\	.	.	.	.	.	.	.
24E-X\J	24e-\J	.	.	.	.	.	.	.
24Gn\L	24gn\L	16c-/]) 16cc-]	.	.	.	.	.	.
24G-X\	24g-X\	.	.	.	.	.	.	.
!	!	!	!	!	!	!	!LO:HP:a:t=dim.	!
.	.	16rgg	.	16ddn\)	-ßen	.	>	.
24B-X\JJ)	24b-X\JJ)	.	.	.	.	.	.	.
!	!	!	!	!	!	!	!LO:DY:a	!
!	!	!	!	!	!	!	!LO:HP:a	!
8EEE#X\L 8EE#X	(24cc#X/LL	8an\L	.	8cc#X\	Ne-	lśni	p <	.
.	24c#X/	.	.	.	.	.	.	.
.	[24cc#/J	.	.	.	.	.	.	.
*tuplet	*	*tuplet	*	*	*	*	*	*
!LO:TX:t=P:problem=klamra łukowa i 3	!	!LO:TX:b:t=P:problem=klamra łukowa i 3	!	!	!	!	!	!
(12G#X^^\ 12B#X	24cc#/L]	12g#X\ 12b#X	.	8cc#\	-bel	szkar-	.	.
.	24c#/	.	.	.	.	.	.	.
24Gn\Jk) 24Bn	24cc#/JJ	[24gn\Jk [24bn	.	.	.	.	.	.
!	!LO:TX:a:i:t=ten.	!	!	!	!	!	!LO:HP:a	!
8FFF#X\L 8FF#X	24ddn/LL	8g\L] 8b]	.	8.dd^^\	träumt	-łat-	[ >	.
.	24d/	.	.	.	.	.	.	.
.	[24dd/J	.	.	.	.	.	.	.
*Xtuplet	*	*Xtuplet	*	*	*	*	*	*
(12F#X^^\ 12A#X	24dd/L]	12f#X\ 12a#X	.	.	.	.	.	.
.	24d/	.	.	.	.	.	.	.
!	!	!	!	!LO:TX:a:i:t=rit.	!	!	!	!
.	.	.	.	16bn\	die	-ne	]	.
24Fn\Jk) 24An	24b/JJ)	24fn\Jk 24an	.	.	.	.	.	.
*	*	*	*	*	*	*	*v	*v
!!LO:LB:g=original
=12	=12	=12	=12	=12	=12	=12	=12
*	*	*	*^	*	*	*	*
!	!	!	!LO:DY:rj	!	!LO:TX:a:i:t=dolce	!	!	!LO:DY:a
8DDDn\L 8DDn	(24a#X/LL	8f#X\L	ppp	.	8a#X/	Son-	Słoń-	pp
!	!LO:TX:b:i:t=dolce	!	!	!	!	!	!	!
.	24A#X/	.	.	.	.	.	.	.
.	[24a#/J	.	.	.	.	.	.	.
((12Fn^^\ 12An	24f#X/L	12fnX\ 12an 12a#X]	.	.	8a#/	-ne,	-ce,	.
.	24A#/	.	.	.	.	.	.	.
24En\Jk)) 24G#X	24a#/JJ	[24e\Jk [24g#	.	.	.	.	.	.
!	!LO:TX:b:i:t=riten.	!	!	!	!	!	!	!
8DDD#X\L 8DD#X	24b/LL	8e\L] 8g#]	.	.	8r	.	.	.
.	24B/	.	.	.	.	.	.	.
.	24b/J	.	.	.	.	.	.	.
!	!	!	!	!	!	!	!	!LO:HP:a
([12D#X^^\ 12Gn	[24b/L	[12d#X\ 12gn	.	.	8b\	im	w mgłach	<
.	12B/JJ) 12b]	.	.	.	.	.	.	.
24D#\Jk]) 24F#X	.	24d#\Jk] [>24f#X	.	.	.	.	.	.
!	!LO:TX:a:i:t=a tempo	!	!LO:HP:a	!LO:HP:a:t=cresc. molto	!LO:TX:a:i:t=a tempo	!	!	!
(16GGG#X\LL 16GG#X	(24dn/LL 24f#]	4ryy	<	<	8f#X/	Ne-	og-	.
.	24F#X/	.	.	.	.	.	.	.
16Dn\J	.	.	.	.	.	.	.	.
.	24A#X/J 24a#X	.	.	.	.	.	.	.
!	!	!	!	!	!LO:TX:a:t=cresc. molto	!	!	!
24F#\L	24f#X/L	.	.	.	16.cc#X\	-bel	-ni-	.
24d\)	24B/ 24b	.	.	.	.	.	.	.
(24AAAnZ\JJ 24AAnZ	24e#X/JJ) 24ee#X	.	.	.	.	.	.	.
.	.	.	[	.	32ddn\	ein	-ste	[
*	*	*	*v	*v	*	*	*	*
*	*v	*v	*	*	*	*	*
=13	=13	=13	=13	=13	=13	=13
*M4/8	*M4/8	*	*M4/8	*	*	*
*^	*^	*	*	*	*	*
*tuplet	*	*	*	*	*	*	*	*
!LO:TX:t=P:problem=klamra łukowa i 3	!	!	!	!	!	!	!	!LO:DY:a
12F#X/L) 12An 12dn	4ryy	(24ff#X^^/LL	8dd\L	f	8ff#X^^\	feu-	ser-	f
.	.	24f#X/	.	.	.	.	.	.
(24AAA#X/Jk 24AA#X	.	24b#X/J	.	.	.	.	.	.
*Xtuplet	*	*	*	*	*	*	*	*
!	!	!	!	!LO:HP:a	!	!	!	!LO:HP:a
12E#X/L) 12F##X 12c#X	.	24ee#X^^/L	8cc#X\J	>	8ee#X^^\	-rig	-ce	>
.	.	24e#X/	.	.	.	.	.	.
(<24FFF#X/Jk 24FF#X	.	24f##X/JJ	.	.	.	.	.	.
!	!	!	!LO:N:acc=n#	!	!	!	!	!
12F#X\L)	8C#X/L 8c#X	[24an/KL	12f#X\L	.	8an/	Herz,	spi.	]
!	!	!LO:TX:b:i:t=rit.	!	!	!	!	!	!
.	.	12An/J 12a_	.	]	.	.	.	.
24Gn\Jk	.	.	24gn\Jk	.	.	.	.	.
!	!	!	!	!LO:HP:a	!	!	!	!
16A-X\LL	8Dn/J 8dn	24an/LL]	8a-X\	<	16r	.	.	.
.	.	(<24An/	.	.	.	.	.	.
16FFFn\JJ 16FFn	.	.	.	.	16dd\	Es	Już	.
.	.	24B-X/JJ)) 24b-X	.	[	.	.	.	.
*v	*v	*	*	*	*	*	*	*
*	*v	*v	*	*	*	*	*
!!LO:LB:g=original
=14	=14	=14	=14	=14	=14	=14
*	*	*^	*	*	*	*
!	!	!	!	!	!	!	!LO:DY:a
!	!	!LO:DY:b	!	!	!	!	!LO:HP:a
16EEE/ 16EE	24r	pp	.	8.dd^^\	hat	własn-	p <
!	!	!LO:HP:a	!LO:HP:a:t=poco cresc.	!	!	!	!
.	(24a#X\LL 24aa#X	<	<	.	.	.	.
(16G#X\LL 16g#X	.	.	.	.	.	.	.
.	24ff\J	.	.	.	.	.	.
16d\JJ)	24bn\L 24bbn	.	.	.	.	.	.
.	24ee\	.	.	.	.	.	.
(16EE/LL	.	.	.	16g#X/	sich	-ny	.
.	24ccn\JJ) 24cccn	[	.	.	.	.	.
16EEE/JJ)	24r	.	.	8gn/	müd	zmógł	.
!	!	!LO:HP:a	!	!	!	!	!
.	(24b#X\LL 24bb#X	<	.	.	.	.	.
(16A#X\LL 16a#X	.	.	.	.	.	.	.
.	24ggn\J	.	.	.	.	.	.
16e\JJ)	24cc#X\L 24ccc#X	.	.	8een\	ge-	je	.
.	24ff#X\	.	.	.	.	.	.
(16EE/LL	.	.	.	.	.	.	.
.	24dd\JJ) 24ddd	[	.	.	.	.	[
=15	=15	=15	=15	=15	=15	=15	=15
!	!	!	!	!	!	!	!LO:HP:a
16EEE/JJ)	24r	.	.	4dd\	-glänzt,	blask,	>
!	!	!LO:HP:a	!LO:HP:a:t=dim.	!	!	!	!
.	(24a#X\LL 24aa#X	<	>	.	.	.	.
(16G#X\LL 16g#X	.	.	.	.	.	.	.
.	24ffn\J	.	.	.	.	.	.
16d\JJ)	24bn\L 24bbn	.	.	.	.	.	.
.	24ff#X\	.	.	.	.	.	.
(16EE/LL	.	.	.	.	.	.	.
.	24ccn\JJ) 24cccn	[	.	.	.	.	.
16EEE/JJ)	24r	.	.	16r	.	.	]
!	!	!LO:HP:a	!LO:HP:a	!	!	!	!
.	(24an\LL 24aan	<	<	.	.	.	.
!	!	!	!	!	!	!	!LO:HP:a
(16F##X\LL 16f##X	.	.	.	16a/	das	mi-	<
.	24ee\J	.	.	.	.	.	.
16c#X\JJ)	24a#X\L 24aa#X	.	.	16a#X/	hat	-łos-	.
.	24dd#X\	.	.	.	.	.	.
(16EE/LL	.	.	.	16b\	sich	-ci	[
.	24b\JJ) 24bb	[	[	.	.	.	.
*	*	*v	*v	*	*	*	*
!!LO:PB:g=original
=16	=16	=16	=16	=16	=16	=16
*	*	*	*	*	*	*^
*	*	*^	*	*	*	*	*
!	!	!LO:DY:b	!	!	!	!	!LO:HP:a	!LO:HP:a
16EEE/JJ)	24r	mp	.	8.dd\	müd	stra-	<	<
!	!	!LO:HP:a	!LO:HP:a:t=dim. e rallent.	!	!	!	!	!
.	(24a#X\LL 24aa#X	<	>	.	.	.	.	.
(16G#X\LL 16g#X	.	.	.	.	.	.	.	.
.	24ffn\J	.	.	.	.	.	.	.
16d\JJ)	24b\L 24bb	.	.	.	.	.	.	.
.	24een\	.	.	.	.	.	.	.
(16EEE/LL 16EE	.	.	.	16g#X/	ge-	-wił	[	.
.	24ccn\JJ) 24cccn	[	.	.	.	.	.	.
!	!	!	!	!	!	!	!LO:HP:a	!
16DDD#X/JJ) 16DD#X	24r	.	.	(8g#/	-liebt.	żar.	>	.
!	!	!LO:HP:a	!	!	!	!	!	!
.	(24g#X\LL 24gg#X	<	.	.	.	.	.	.
(16F#X\LL 16f#X	.	.	.	.	.	.	.	.
.	24cc#X\J	.	.	.	.	.	.	.
!	!	!	!	!LO:TX:a:t=rall.	!	!	!	!
16B#X\JJ)	24an\L 24aan	.	.	16gn/)	.	.	.	.
.	24b#X\	.	.	.	.	.	.	.
(16DDDn/ 16DDn	.	.	.	16f#X/	Nun	Dziś	]	.
.	24a#X\JJ) 24aa#X	[	.	.	.	.	.	.
*	*	*v	*v	*	*	*	*	*
*	*	*	*	*	*	*v	*v
=17	=17	=17	=17	=17	=17	=17
*	*^	*	*	*	*	*
!	!	!	!	!	!	!	!LO:DY:a
!	!	!	!	!	!	!	!LO:HP:a
12Bn/L) 12dn 12gn	24ggn\LL	(8bbn/L	pp	8b^^\	will	pra-	pp >
.	24bn\	.	.	.	.	.	.
(24DDD#X/Jk 24DD#X	24ee#X\J	.	>	.	.	.	.
12A#X/L) 12B#X 12f#X	24ff#X\L	8aa#X/J	.	8a#X^^/	es	-gnie	.
.	24a#X\	.	.	.	.	.	.
(<24BBBn/Jk 24FF#X 24BBn	24b#X\JJ	.	.	.	.	.	.
8Bn\L) 8dn	24ddn/LL	8bn\L	.	8dn^^/	ruhn	snu	]
.	24dn/	.	.	.	.	.	.
.	24f#X/J	.	]	.	.	.	.
(12An^^\ 12c#X	[24dd/L	12an\ 12cc#X	.	16r	.	.	.
.	12d/JJ) 12dd]	.	.	.	.	.	.
!	!	!	!	!	!	!	!LO:DY:a
!	!	!	!	!	!	!	!LO:HP:a
.	.	.	.	16d/	und	i	ppp <
24G#X\Jk) 24B#X	.	24g#X\Jk 24b#X	.	.	.	.	.
*	*v	*v	*	*	*	*	*
!!LO:LB:g=original
=18	=18	=18	=18	=18	=18	=18
*M6/8	*M6/8	*	*M6/8	*	*	*
*^	*^	*	*	*	*	*
8DDn/L 8BBn 8Gn	4ryy	(24bn/LL	8gn\L	.	8d/	schla-	ci-	.
!	!	!	!	!LO:DY:t=più p	!	!	!	!
.	.	24Bn/	.	p <	.	.	.	.
.	.	24e#X/J	.	.	.	.	.	.
!	!	!	!	!	!LO:TX:a:i:t=rall.	!	!	!
8DD#X/J 8AA#X 8BB#X 8F#X	.	24a#X/L	8f#X\J	.	8d#X/	-fen.	-szy.	[
.	.	24A#X/ 24B#X	.	.	.	.	.	.
.	.	24c##X/JJ	.	[	.	.	.	.
!	!	!	!	!LO:HP:a	!	!	!	!
(8D#X^^/L	8.BBB\ 8.FF#X	4f#X/	(24d#X\LL	>	4r	.	.	.
.	.	.	24F#X\	.	.	.	.	.
.	.	.	24d#\J	.	.	.	.	.
16Dn/Jk)	.	.	24dn\L	.	.	.	.	.
.	.	.	24F#\	.	.	.	.	.
16rF	16r	.	.	.	.	.	.	.
.	.	.	24d\JJ	]	.	.	.	.
!	!	!	!	!LO:HP:a	!	!	!	!
(8D#X^^/L	8.BBB\ 8.FF#	([8f#/L)	24d#X\LL)	<	8r	.	.	.
.	.	.	24F#\	.	.	.	.	.
.	.	.	24d#\J	.	.	.	.	.
!	!	!LO:TX:b:i:t=rallent.	!	!	!	!	!	!
16Dn/Jk)	.	16f#/Jk]	16dn\L 16g#X	[	16r	.	.	.
!	!	!	!	!	!LO:TX:a:i:t=(rall.)	!	!	!
16rF	16r	16a#X'</) 16aa#X	16F#\JJ	.	16a#X/	Wie	Jak	.
*v	*v	*	*	*	*	*	*	*
*	*v	*v	*	*	*	*	*
=19	=19	=19	=19	=19	=19	=19
*M4/8	*M4/8	*	*M4/8	*	*	*
*	*^	*	*	*	*	*
!	!	!	!	!	!	!	!LO:DY:a
!LO:TX:t=P:problem=mixed beam	!	!	!	!LO:TX:a:t=Tempo I.	!	!	!LO:HP:a
8FFF#X/L 8FF#X	(24a#X'/LL 24aa#X	8r	ppp	8.a#X/	schön	cud-	ppp <
.	24a#'/ 24aa#	.	<	.	.	.	.
.	24a#'/J 24aa#	.	.	.	.	.	.
(8e^^\ 8g#X	24a#'/L 24aa#	8ee\L 8gg#X	.	.	.	.	.
.	24a#'/ 24aa#	.	.	.	.	.	.
.	.	.	.	16a#/	du	-nie	[
.	24a#'/JJ 24aa#	.	[	.	.	.	.
!	!	!	!	!	!	!	!LO:HP:a
8d\ 8f#X	24a#'/LL 24aa#	8dd\ 8ff#X	>	16ddn\	schla-	to-	>
.	24a#'/ 24aa#	.	.	.	.	.	.
.	.	.	.	16dd\	-fen	-bie	.
.	24a#'/J 24aa#	.	.	.	.	.	.
8cn\J) 8e	24a#'/L 24aa#	8ccn\J 8ee	.	8ccn\	wirst,	śnic	]
.	24a#'/ 24aa#	.	.	.	.	.	.
.	24a#'/JJ) 24aa#	.	]	.	.	.	.
!!LO:LB:g=original
=20	=20	=20	=20	=20	=20	=20	=20
*^	*	*	*	*	*	*	*
(8g#X^^/L	16e\LL	(24a#X'^^/LL 24aa#X	8ee\L 8gg#X	.	8r	.	.	.
.	.	24a#'/ 24aa#	.	.	.	.	.	.
.	[16AAA#X\JJ [>16AA#X	.	.	.	.	.	.	.
.	.	24a#'/J 24aa#	.	.	.	.	.	.
!	!LO:N:cue	!	!	!	!	!	!	!
!	!LO:TX:b:t=P:problem=nuty w nawiasie	!	!	!	!	!	!	!
8d/ 8f#X	4.AAA#\] 4.AA#]	24a#'/L 24aa#	8dd\ 8ff#X	.	16r	.	.	.
.	.	24a#'/ 24aa#	.	.	.	.	.	.
!	!	!	!	!	!	!	!	!LO:DY:a:rj
!	!	!	!	!	!LO:TX:a:i:t=dimin. e rallent.:ext=s:ext=ud	!	!	!LO:HP:a
.	.	.	.	.	16f#X/	du	o	pp <
.	.	24a#'/JJ 24aa#	.	.	.	.	.	.
!	!	!	!LO:TX:b:i:t=rallent.	!	!	!	!	!
8cn/ 8e	.	24a#'/LL 24aa#	8ccn\ 8ee	.	8.f#/	jun-	pię-	.
.	.	24a#'/ 24aa#	.	.	.	.	.	.
.	.	24a#'/J 24aa#	.	.	.	.	.	.
8B/J) 8d#X	.	24a#'/L 24aa#	8b\J 8dd#X	.	.	.	.	.
.	.	24a#'/ 24aa#	.	.	.	.	.	.
.	.	.	.	.	16g#X/	-ge	-kma	[
.	.	24a#'/JJ) 24aa#	.	.	.	.	.	.
*v	*v	*	*	*	*	*	*	*
=21	=21	=21	=21	=21	=21	=21	=21
!	!	!	!	!	!	!	!LO:HP:a
4.A#X\ 4.c##X	(24a#X'/LL 24aa#X	4.a#\ 4.cc##X	ppp >	4.a#X/	Frau.	ma.	>
.	24a#'/ 24aa#	.	.	.	.	.	.
.	[<24a#'/J [>24aa#	.	.	.	.	.	.
.	24a#'/L] 24aa#]	.	.	.	.	.	.
.	24a#'/ 24aa#	.	.	.	.	.	.
.	[<24a#'/JJ [>24aa#	.	.	.	.	.	.
.	16a#/LL] 16aa#]	.	.	.	.	.	.
.	[<16a#'/J [>16aa#	.	] pppp	.	.	.	.
8r;	16a#/L] 16aa#]	8ryy	.	8r;	.	.	]
.	16a#;/JJ) 16aa#	.	.	.	.	.	.
*	*v	*v	*	*	*	*	*
==	==	==	==	==	==	==
*-	*-	*-	*-	*-	*-	*-
!!!system-decoration: s1{(s2,s3)}
!!!RDF**kern: < = below
!!!RDF**kern: > = above
!!!RDF**kern: Z = editorial accidental, paren
!!!ENC: Anastazja Marusiak
!!!END: 2023-09-26
!!!EED: Marta Chmielewska
!!!EEV: 2023-10-21
